icon/gr/user-new.svg

<svg xmlns="http://www.w3.org/2000/svg" viewBox="0 0 24 24" height="1em" width="1em">
  <path fill="none" stroke="#000" stroke-width="2" d="M18,24 L18,12 M23,22 L13,15 M23,15 L13,22 M8,11 C10.7614237,11 13,8.76142375 13,6 C13,3.23857625 10.7614237,1 8,1 C5.23857625,1 3,3.23857625 3,6 C3,8.76142375 5.23857625,11 8,11 Z M13.0233822,13.0234994 C11.7718684,11.7594056 10.0125018,11 8,11 C4,11 1,14 1,18 L1,23 L11,23"/>
</svg>

<svg xmlns="http://www.w3.org/2000/svg" width="24" height="24"><path fill="none" stroke="#000" stroke-width="2" d="M18 24V12m5 10-10-7m10 0-10 7M8 11A5 5 0 1 0 8 1a5 5 0 0 0 0 10Zm5.023 2.023C11.772 11.76 10.013 11 8 11c-4 0-7 3-7 7v5h10"/></svg>
